packages/kaspersky-hexa-ui-icons/src/iconsSVGs/48/Signs.svg

<svg xmlns="http://www.w3.org/2000/svg" width="48" height="48" fill="none" viewBox="0 0 48 48"><path fill="#000" fill-rule="evenodd" d="M8.5083 3.101c1.5426-2.8013 5.4408-2.8013 6.9834 0l6.9751 12.6666C23.9576 18.4749 22.1399 22 18.9752 22H5.0248c-3.1647 0-4.9824-3.5251-3.4916-6.2324zm21.0485-.6041A3 3 0 0 1 32.1531 1h7.6938a3 3 0 0 1 2.5963 1.4969l4.3421 7.5a3 3 0 0 1 0 3.0062l-4.3421 7.5A3 3 0 0 1 39.8469 22h-7.6938a3 3 0 0 1-2.5963-1.4969l-4.3421-7.5a3 3 0 0 1 0-3.0062zM13.7397 4.0657c-.7824-1.421-2.6969-1.421-3.4794 0L3.2851 16.7324C2.451 18.2473 3.5395 20 5.0248 20h13.9504c1.4853 0 2.5739-1.7527 1.7397-3.2676zM32.1531 3a1 1 0 0 0-.8654.499l-4.3421 7.5a1 1 0 0 0 0 1.002l4.3421 7.5a1 1 0 0 0 .8654.499h7.6938a1 1 0 0 0 .8654-.499l4.3421-7.5a1 1 0 0 0 0-1.002l-4.3421-7.5A1 1 0 0 0 39.8469 3zM12 6c.5523 0 1 .4477 1 1v6c0 .5523-.4477 1-1 1s-1-.4477-1-1V7c0-.5523.4477-1 1-1m25 1c0-.5523-.4477-1-1-1s-1 .4477-1 1v6c0 .5523.4477 1 1 1s1-.4477 1-1zM12 17c.5523 0 1-.4477 1-1s-.4477-1-1-1-1 .4477-1 1 .4477 1 1 1m25-1c0 .5523-.4477 1-1 1s-1-.4477-1-1 .4477-1 1-1 1 .4477 1 1m-25 9C5.9249 25 1 29.9249 1 36s4.9249 11 11 11 11-4.9249 11-11-4.9249-11-11-11m14 5c0-2.2091 1.7909-4 4-4h12c2.2091 0 4 1.7909 4 4v12c0 2.2091-1.7909 4-4 4H30c-2.2091 0-4-1.7909-4-4zM3 36c0-4.9706 4.0294-9 9-9s9 4.0294 9 9-4.0294 9-9 9-9-4.0294-9-9m27-8c-1.1046 0-2 .8954-2 2v12c0 1.1046.8954 2 2 2h12c1.1046 0 2-.8954 2-2V30c0-1.1046-.8954-2-2-2zm-17 3c0-.5523-.4477-1-1-1s-1 .4477-1 1v6c0 .5523.4477 1 1 1s1-.4477 1-1zm23-1c.5523 0 1 .4477 1 1v6c0 .5523-.4477 1-1 1s-1-.4477-1-1v-6c0-.5523.4477-1 1-1M12 41c.5523 0 1-.4477 1-1s-.4477-1-1-1-1 .4477-1 1 .4477 1 1 1m25-1c0 .5523-.4477 1-1 1s-1-.4477-1-1 .4477-1 1-1 1 .4477 1 1"/></svg>

<svg width="48" height="48" viewBox="0 0 48 48" fill="none" xmlns="http://www.w3.org/2000/svg">
<path d="M12 6C12.5523 6 13 6.44772 13 7V13C13 13.5523 12.5523 14 12 14C11.4477 14 11 13.5523 11 13V7C11 6.44772 11.4477 6 12 6Z" fill="black"/>
<path d="M13 16C13 16.5523 12.5523 17 12 17C11.4477 17 11 16.5523 11 16C11 15.4477 11.4477 15 12 15C12.5523 15 13 15.4477 13 16Z" fill="black"/>
<path fill-rule="evenodd" clip-rule="evenodd" d="M15.4917 3.10096C13.9491 0.299678 10.0509 0.299679 8.50835 3.10096L1.53319 15.7676C0.0423806 18.4749 1.86011 22 5.02484 22H18.9752C22.1399 22 23.9576 18.4749 22.4668 15.7676L15.4917 3.10096ZM10.2603 4.0657C11.0428 2.64477 12.9572 2.64477 13.7397 4.0657L20.7149 16.7324C21.5491 18.2473 20.4605 20 18.9752 20H5.02484C3.53946 20 2.45087 18.2473 3.28512 16.7324L10.2603 4.0657Z" fill="black"/>
<path d="M37 7C37 6.44772 36.5523 6 36 6C35.4477 6 35 6.44772 35 7V13C35 13.5523 35.4477 14 36 14C36.5523 14 37 13.5523 37 13V7Z" fill="black"/>
<path d="M36 17C36.5523 17 37 16.5523 37 16C37 15.4477 36.5523 15 36 15C35.4477 15 35 15.4477 35 16C35 16.5523 35.4477 17 36 17Z" fill="black"/>
<path fill-rule="evenodd" clip-rule="evenodd" d="M29.5568 2.49689C30.0932 1.57044 31.0826 1 32.1531 1H39.8469C40.9174 1 41.9068 1.57044 42.4432 2.49689L46.7853 9.99689C47.3236 10.9267 47.3236 12.0733 46.7853 13.0031L42.4432 20.5031C41.9068 21.4296 40.9174 22 39.8469 22H32.1531C31.0826 22 30.0932 21.4296 29.5568 20.5031L25.2147 13.0031C24.6764 12.0733 24.6764 10.9267 25.2147 9.99689L29.5568 2.49689ZM32.1531 3C31.7963 3 31.4665 3.19015 31.2877 3.49896L26.9456 10.999C26.7661 11.3089 26.7661 11.6911 26.9456 12.001L31.2877 19.501C31.4665 19.8099 31.7963 20 32.1531 20H39.8469C40.2037 20 40.5335 19.8099 40.7123 19.501L45.0544 12.001C45.2339 11.6911 45.2339 11.3089 45.0544 10.999L40.7123 3.49896C40.5335 3.19015 40.2037 3 39.8469 3H32.1531Z" fill="black"/>
<path d="M13 31C13 30.4477 12.5523 30 12 30C11.4477 30 11 30.4477 11 31V37C11 37.5523 11.4477 38 12 38C12.5523 38 13 37.5523 13 37V31Z" fill="black"/>
<path d="M12 41C12.5523 41 13 40.5523 13 40C13 39.4477 12.5523 39 12 39C11.4477 39 11 39.4477 11 40C11 40.5523 11.4477 41 12 41Z" fill="black"/>
<path fill-rule="evenodd" clip-rule="evenodd" d="M12 25C5.92487 25 1 29.9249 1 36C1 42.0751 5.92487 47 12 47C18.0751 47 23 42.0751 23 36C23 29.9249 18.0751 25 12 25ZM3 36C3 31.0294 7.02944 27 12 27C16.9706 27 21 31.0294 21 36C21 40.9706 16.9706 45 12 45C7.02944 45 3 40.9706 3 36Z" fill="black"/>
<path d="M36 30C36.5523 30 37 30.4477 37 31V37C37 37.5523 36.5523 38 36 38C35.4477 38 35 37.5523 35 37V31C35 30.4477 35.4477 30 36 30Z" fill="black"/>
<path d="M37 40C37 40.5523 36.5523 41 36 41C35.4477 41 35 40.5523 35 40C35 39.4477 35.4477 39 36 39C36.5523 39 37 39.4477 37 40Z" fill="black"/>
<path fill-rule="evenodd" clip-rule="evenodd" d="M30 26C27.7909 26 26 27.7909 26 30V42C26 44.2091 27.7909 46 30 46H42C44.2091 46 46 44.2091 46 42V30C46 27.7909 44.2091 26 42 26H30ZM28 30C28 28.8954 28.8954 28 30 28H42C43.1046 28 44 28.8954 44 30V42C44 43.1046 43.1046 44 42 44H30C28.8954 44 28 43.1046 28 42V30Z" fill="black"/>
</svg>
